X:1
T:C# minor Timothy Swan, 1785 Revised 1802
T:Isaac Watts, 1717 (Psalm 39, Part 3)      86. 86. (C. M.)
T:Poland
T:Transcribed from  Swan's New England Harmony, 1802.
%%score [ 1 2 3 4 ]
L:1/8
Q:1/4=120
M:3/2
K:E
V:1 treble nm="Voice" snm="Tr."
V:2 treble nm="Voice" snm="C."
V:3 treble-8 nm="Tenor" snm="T."
V:4 bass nm="Bass" snm="B."
V:1
"^2. Dis–ea–ses  are     thy      ser    –   vants,  Lord,  They come at   thy   command;      I'll   not         at – tempt     a     mur – muring word      A–gainst  thy         cha  – stening hand.""^1. God  of  my  life,    look   gent     –      ly    down,  Be–hold the    pains I      feel;      But   I            am  dumb     be – fore       thy    throne,    Nor dare  dis   –    pute          thy  will." c4 | %1
 c8 e4 | (d3 c B4) B4 | (e2 B2) G4 e4 | (d3 c B4) G4 | c8 c4 | c8 (f3 e) | (d3 c B4) B4 | G8 A4 | %9
 G8 e4 | (e4 d4) (c2 B2) | c8 G4 | c8 (B2 cd) | (e4 B4) G4 | G12 |] %15
V:2
"^3. Yet  I  may  plead with   hum   –    ble       cries,   Re–move thy sharp re–bukes;    My strength con–sumes, my  spi    –   rit       dies,   Through thy      re  –   pea   – ted strokes.""^4. Crushed as a moth be – neath        thy      hand,   We mol–der   to    the     dust;    Our fee    –     ble  powers can  ne'er     with–stand,     And      all       our     beau  –  ty's  lost." G4 | %1
 G8 G4 | G8 (B2 G2) | E8 (G2 E2) | F8 E4 | E8 (G2 E2) | F8 A4 | G8 G4 | G8 F4 | G8 G4 | %10
 G8 (E2 B2) | (G3 F E4) G4 | (A3 G F4) F4 | (E3 F G4) G4 | G12 |] %15
V:3
"^5. This mortal life    de  –  cays               a  –  pace,  How soon the  bubble's   broke!    A – dam   and     all          his   nu – merous  race       Are    va   –   ni     –    ty        and    smoke.""^6. I'm   but  a    so   –  jour – ner               be –  low,     As   all  my     fathers    were;    May   I       be        well       pre–pared   to         go,         When  I        the         sum – mons   hear." c4 | %1
 G8 G4 | B8 e4 | (B4 c2 B2) G4 | F8 E4 | G8 G4 | A8 c4 | B8 G4 | e8 (d2 c2) | B8 B4 | B8 (e2 B2) | %11
 G8 (F2 E2) | A8 (G2 F2) | G8 (e2 d2) | c12 |] %15
V:4
"^7. But if my   life     be     spared          a   –  while,  Before my      last re  –  move,    Thy  praise  shall be         my    busi  –  ness   still,      And  I'll           de  –  clare      thy   love." C,4 | %1
 C,8 C,4 | G,8 E,4 | E,8 E,4 | B,,8 C,4 | C,8 C,4 | F,8 F,4 | G,8 G,4 | (C,3 D, E,4) F,4 | %9
 (G,3 F, E,4) E,4 | (E,3 F, G,4) G,,4 | C,8 G,4 | F,8 B,,4 | (C,3 D, E,4) G,4 | C,12 |] %15

